rospo-newyear-dark/symbolic/apps/libreoffice-writer-symbolic.svg

<svg height="16" width="16" xmlns="http://www.w3.org/2000/svg"><g fill="#d3dae3"><path d="m5 11h3v1h-3z"/><path d="m5 9h6v1h-6z"/><path d="m5 7h5v1h-5z"/><path d="m5 5h3v1h-3z"/><path d="m2 0c-.5523 0-1 .44772-1 1v14c0 .552.4477 1 1 1h12c .556 0 1-.452 1-1v-7.5c0-.2574-.121-.6214-.31-.81l-6.41-6.415c-.1875-.18754-.5099-.275-.78-.275zm1 2h4l6 6v6h-10z"/><path d="m11.5 0c-.552 0-.693.5146-.354.85352l3 2.99998c.351.3506.854.0885.854-.3535v-3c0-.28004-.22-.5-.5-.5z"/></g></svg>

<svg xmlns="http://www.w3.org/2000/svg" width="16" height="16" version="1.1">
 <path style="fill:#d3dae3" d="M 5,11 H 8 V 12 H 5 Z"/>
 <path style="fill:#d3dae3" d="M 5,9 H 11 V 10 H 5 Z"/>
 <path style="fill:#d3dae3" d="M 5,7 H 10 V 8 H 5 Z"/>
 <path style="fill:#d3dae3" d="M 5,5 H 8 V 6 H 5 Z"/>
 <path style="fill:#d3dae3" d="M 2,0 C 1.4477,0 1,0.44772 1,1 V 15 C 1,15.552 1.4477,16 2,16 H 14 C 14.556,16 15,15.548 15,15 V 7.5 C 15,7.2426 14.879,6.8786 14.69,6.69 L 8.28,0.275 C 8.0925,0.08746 7.7701,0 7.5,0 Z M 3,2 H 7 L 13,8 V 14 H 3 Z"/>
 <path style="fill:#d3dae3" d="M 11.5,0 C 10.948,0 10.807,0.5146 11.146,0.85352 L 14.146,3.8535 C 14.497,4.2041 15,3.942 15,3.5 V 0.5 C 15,0.21996 14.78,0 14.5,0 Z"/>
</svg>
